front/src/app/components/common/ident-icon/icon-sonm.svg

<svg xmlns="http://www.w3.org/2000/svg" viewBox="0 0 100 100"><circle cx="50.3" cy="49.9" r="50" fill="#0c1c25"/><path d="M50.3 10c-22 0-39.9 17.9-39.9 39.9s17.9 39.9 39.9 39.9 39.9-17.9 39.9-39.9S72.3 10 50.3 10zm16 41.7c-6 0-11-4.9-11-11s4.9-11 11-11c6 0 11 4.9 11 11-.1 6.1-5 11-11 11zm6.7 8.6c1.5 0 2.7 1.2 2.7 2.7 0 1.5-1.2 2.7-2.7 2.7s-2.7-1.2-2.7-2.7c0-1.5 1.2-2.7 2.7-2.7zm-4.6-3.7c-1.9 1.3-3.1 3.6-3.2 6-1.2-3-3.2-5.5-5.8-7.4 2.1 1 4.4 1.5 6.8 1.5.8.1 1.5.1 2.2-.1zM54.7 17.4c7 .9 13.3 4 18.1 8.7-2-.9-4.3-1.4-6.6-1.4-3.4 0-6.6 1.1-9.2 2.9.6-1.1 1-2.4 1-3.8 0-2.6-1.3-5-3.3-6.4zm-1.8 6.4c0 1.5-1.2 2.7-2.7 2.7s-2.7-1.2-2.7-2.7c0-1.5 1.2-2.7 2.7-2.7 1.5 0 2.7 1.2 2.7 2.7zm-2.7 7.9c1.3 0 2.4-.3 3.4-.8-2 2.5-3.2 5.6-3.4 9.1-.1-3.4-1.4-6.6-3.4-9.1 1.1.5 2.2.8 3.4.8zm0 9.9c.3 5.1 2.9 9.5 6.8 12.3-2.1-1-4.4-1.5-6.8-1.5-2.3 0-4.5.5-6.5 1.3 3.7-2.8 6.2-7.1 6.5-12.1zm-7.8-17.8c0 1.3.3 2.7 1 3.8-2.6-1.8-5.8-2.9-9.1-2.9-2.2 0-4.4.5-6.3 1.3 4.8-4.6 11-7.7 17.9-8.7-2.2 1.5-3.5 3.9-3.5 6.5zm-8.2 6c6 0 11 4.9 11 11s-4.9 11-11 11-11-4.9-11-11 5-11 11-11zm6.5 25.7c-2.5 1.8-4.5 4.3-5.5 7.2-.1-2.5-1.3-4.7-3.3-6 .7.1 1.5.1 2.3.1 2.3 0 4.5-.5 6.5-1.3zm-13.6-.3c-3.8.1-6.8 2.8-7.5 6.4-1.4-3.6-2.2-7.6-2.2-11.7 0-2.4.3-4.7.8-7 .8 5.4 4.2 10 8.9 12.3zm.2 5.1c1.5 0 2.7 1.2 2.7 2.7 0 1.5-1.2 2.7-2.7 2.7-1.5 0-2.7-1.2-2.7-2.7 0-1.5 1.2-2.7 2.7-2.7zm0 10.6c2.9 0 5.5-1.6 6.8-4 0 .5-.1 1-.1 1.6 0 5.2 2.4 9.8 6.3 12.7-6.2-2-11.6-5.8-15.6-10.8.8.3 1.7.5 2.6.5zm11.9-2.5c0-6 4.9-11 11-11s11 4.9 11 11c0 6-4.9 11-11 11s-11-5-11-11zm20.6 12.9c3.9-2.9 6.4-7.6 6.4-12.8 0-.6 0-1.1-.1-1.6 1.3 2.4 3.9 4 6.8 4 1 0 2-.2 2.9-.6-3.9 5.1-9.5 9-16 11zm13.5-26.1c4.8-2.4 8.3-7.1 8.9-12.7.6 2.4.8 4.8.8 7.4 0 4.3-.8 8.4-2.3 12.1-.4-3.7-3.5-6.6-7.4-6.8z" fill="#f1f2f1"/></svg>

<?xml version="1.0" encoding="utf-8"?>
<!-- Generator: Adobe Illustrator 22.0.1, SVG Export Plug-In . SVG Version: 6.00 Build 0)  -->
<svg version="1.1" id="Слой_1" xmlns="http://www.w3.org/2000/svg" xmlns:xlink="http://www.w3.org/1999/xlink" x="0px" y="0px"
	 viewBox="0 0 100 100" style="enable-background:new 0 0 100 100;" xml:space="preserve">
<style type="text/css">
	.st0{fill:#0C1C25;}
	.st1{fill:#F1F2F1;}
</style>
<circle class="st0" cx="50.3" cy="49.9" r="50"/>
<path class="st1" d="M50.3,10c-22,0-39.9,17.9-39.9,39.9s17.9,39.9,39.9,39.9s39.9-17.9,39.9-39.9S72.3,10,50.3,10z M66.3,51.7
	c-6,0-11-4.9-11-11s4.9-11,11-11c6,0,11,4.9,11,11C77.2,46.8,72.3,51.7,66.3,51.7z M73,60.3c1.5,0,2.7,1.2,2.7,2.7
	c0,1.5-1.2,2.7-2.7,2.7s-2.7-1.2-2.7-2.7C70.3,61.5,71.5,60.3,73,60.3z M68.4,56.6c-1.9,1.3-3.1,3.6-3.2,6c-1.2-3-3.2-5.5-5.8-7.4
	c2.1,1,4.4,1.5,6.8,1.5C67,56.8,67.7,56.8,68.4,56.6z M54.7,17.4c7,0.9,13.3,4,18.1,8.7c-2-0.9-4.3-1.4-6.6-1.4
	c-3.4,0-6.6,1.1-9.2,2.9c0.6-1.1,1-2.4,1-3.8C58,21.2,56.7,18.8,54.7,17.4z M52.9,23.8c0,1.5-1.2,2.7-2.7,2.7s-2.7-1.2-2.7-2.7
	c0-1.5,1.2-2.7,2.7-2.7C51.7,21.1,52.9,22.3,52.9,23.8z M50.2,31.7c1.3,0,2.4-0.3,3.4-0.8c-2,2.5-3.2,5.6-3.4,9.1
	c-0.1-3.4-1.4-6.6-3.4-9.1C47.9,31.4,49,31.7,50.2,31.7z M50.2,41.6c0.3,5.1,2.9,9.5,6.8,12.3c-2.1-1-4.4-1.5-6.8-1.5
	c-2.3,0-4.5,0.5-6.5,1.3C47.4,50.9,49.9,46.6,50.2,41.6z M42.4,23.8c0,1.3,0.3,2.7,1,3.8c-2.6-1.8-5.8-2.9-9.1-2.9
	c-2.2,0-4.4,0.5-6.3,1.3c4.8-4.6,11-7.7,17.9-8.7C43.7,18.8,42.4,21.2,42.4,23.8z M34.2,29.8c6,0,11,4.9,11,11s-4.9,11-11,11
	s-11-4.9-11-11C23.2,34.7,28.2,29.8,34.2,29.8z M40.7,55.5c-2.5,1.8-4.5,4.3-5.5,7.2c-0.1-2.5-1.3-4.7-3.3-6
	c0.7,0.1,1.5,0.1,2.3,0.1C36.5,56.8,38.7,56.3,40.7,55.5z M27.1,55.2c-3.8,0.1-6.8,2.8-7.5,6.4c-1.4-3.6-2.2-7.6-2.2-11.7
	c0-2.4,0.3-4.7,0.8-7C19,48.3,22.4,52.9,27.1,55.2z M27.3,60.3c1.5,0,2.7,1.2,2.7,2.7c0,1.5-1.2,2.7-2.7,2.7c-1.5,0-2.7-1.2-2.7-2.7
	C24.6,61.5,25.8,60.3,27.3,60.3z M27.3,70.9c2.9,0,5.5-1.6,6.8-4c0,0.5-0.1,1-0.1,1.6c0,5.2,2.4,9.8,6.3,12.7
	c-6.2-2-11.6-5.8-15.6-10.8C25.5,70.7,26.4,70.9,27.3,70.9z M39.2,68.4c0-6,4.9-11,11-11s11,4.9,11,11c0,6-4.9,11-11,11
	S39.2,74.4,39.2,68.4z M59.8,81.3c3.9-2.9,6.4-7.6,6.4-12.8c0-0.6,0-1.1-0.1-1.6c1.3,2.4,3.9,4,6.8,4c1,0,2-0.2,2.9-0.6
	C71.9,75.4,66.3,79.3,59.8,81.3z M73.3,55.2c4.8-2.4,8.3-7.1,8.9-12.7c0.6,2.4,0.8,4.8,0.8,7.4c0,4.3-0.8,8.4-2.3,12.1
	C80.3,58.3,77.2,55.4,73.3,55.2z"/>
</svg>
